brandFactory_export/3.Masa/Me gusta like_3Masa.svg

<?xml version="1.0" encoding="UTF-8"?>
<svg width="24px" height="24px" viewBox="0 0 24 24" version="1.1" xmlns="http://www.w3.org/2000/svg" xmlns:xlink="http://www.w3.org/1999/xlink">
    <title>3.Masa/Me gusta like_3Masa</title>
    <g id="Symbols" stroke="none" stroke-width="1" fill="none" fill-rule="evenodd">
        <g id="3.Masa/Me-gusta-like_3Masa" fill="#5CB615" fill-rule="nonzero">
            <path d="M21.7142857,12.9243697 C22.0033613,13.189916 22.1478992,13.5697479 22.1478992,14.0504202 C22.1478992,14.5680672 21.8789916,15.0151261 21.3512605,15.3747899 C21.1798319,15.492437 21.0655462,15.6806723 21.0386555,15.8890756 C21.0117647,16.097479 21.0722689,16.3058824 21.210084,16.4638655 C21.4117647,16.6991597 21.5159664,17.0722689 21.5159664,17.5462185 C21.5159664,18.2218487 20.9210084,18.6117647 20.4235294,18.8201681 C20.2285714,18.9008403 20.0806723,19.0588235 20.0134454,19.2537815 C19.9428571,19.4521008 19.9596639,19.6672269 20.0605042,19.8521008 C20.1613445,20.0336134 20.2588235,20.3260504 20.1579832,20.9815126 C19.8588235,21.7781513 19.6033613,22.1781513 15.4756303,22.1781513 C12.9781513,22.1781513 11.9865546,21.8857143 11.1092437,21.6302521 L10.8504202,21.5563025 C10.3596639,21.4151261 9.9697479,21.3042017 9.57647059,21.3042017 L6.60504202,21.2638655 L6.60504202,12.2386555 C6.60504202,12.2184874 6.60168067,12.2016807 6.59831933,12.1815126 L6.59831933,12.1714286 C7.5092437,11.7008403 9.43865546,10.4537815 9.64705882,8.27226891 C9.78823529,6.82016807 9.76806723,5.03865546 9.73781513,3.65042017 C9.73781513,3.62352941 9.73445378,3.59663866 9.73109244,3.5697479 C9.72436975,3.45210084 9.71428571,3.35462185 9.70420168,3.25378151 L9.68403361,3.02521008 C9.65042017,2.53445378 9.74789916,2.16134454 9.97647059,1.91596639 C10.2890756,1.58319328 10.8201681,1.51260504 11.210084,1.51260504 C12.2789916,1.51260504 12.7327731,1.97983193 12.7327731,3.14957983 L12.7260504,3.29411765 L12.7260504,3.33445378 C12.7260504,5.52268908 12.7159664,8.4 12.7159664,8.4 C12.7159664,8.8 13.0319328,9.12941176 13.4319328,9.1394958 L16.6554622,9.23697479 L20.7294118,9.23697479 C21.1596639,9.2605042 22.1579832,9.43865546 22.1579832,10.5781513 C22.1579832,11.1495798 22.010084,11.5865546 21.7277311,11.8386555 C21.5731092,11.9764706 21.4857143,12.1747899 21.4857143,12.3831933 C21.4756303,12.5848739 21.5630252,12.7831933 21.7142857,12.9243697 M3.27394958,14.810084 C2.73613445,14.810084 2.35966387,14.4336134 2.35966387,13.8957983 C2.35966387,13.3579832 2.73613445,12.9815126 3.27394958,12.9815126 C3.81176471,12.9815126 4.18487395,13.3546218 4.18487395,13.8957983 C4.18487395,14.4336134 3.81176471,14.810084 3.27394958,14.810084 M23.1663866,12.3798319 C23.4218487,11.9663866 23.6235294,11.3815126 23.6235294,10.5747899 C23.6235294,8.7394958 22.2084034,7.83865546 20.7630252,7.75798319 L16.6689076,7.75798319 L14.1848739,7.68403361 C14.1882353,6.69243697 14.1915966,4.8605042 14.1915966,3.34789916 L14.1983193,3.18991597 C14.1983193,3.18655462 14.2016807,3.07563025 14.2016807,3.07226891 C14.2016807,1.1697479 13.0823529,0.0302521008 11.2033613,0.0302521008 C10.2218487,0.0302521008 9.42184874,0.332773109 8.8907563,0.904201681 C8.53781513,1.28739496 8.12773109,1.98319328 8.20840336,3.12268908 L8.23193277,3.39831933 C8.24201681,3.49579832 8.25210084,3.58655462 8.25546218,3.70756303 C8.25546218,3.72436975 8.25882353,3.74117647 8.25882353,3.75798319 C8.28907563,5.09243697 8.30588235,6.77647059 8.17478992,8.12436975 C8.03361345,9.60336134 6.57142857,10.5142857 5.91260504,10.8537815 C5.61680672,10.6252101 5.25042017,10.4840336 4.85042017,10.4840336 L1.74789916,10.4840336 C0.783193277,10.4840336 0,11.2672269 0,12.2352941 L0,21.3478992 C0,22.312605 0.783193277,23.0957983 1.74789916,23.0957983 L4.85714286,23.0957983 C5.28067227,23.0957983 5.66722689,22.9378151 5.9697479,22.6857143 C6.04705882,22.702521 6.11764706,22.7327731 6.19831933,22.7327731 L9.56638655,22.7764706 C9.76134454,22.7764706 10.0638655,22.8605042 10.4436975,22.9747899 L10.6957983,23.0453782 C11.6201681,23.3142857 12.7697479,23.6537815 15.4756303,23.6537815 C19.8084034,23.6537815 20.8907563,23.2571429 21.5663866,21.4252101 C21.5831933,21.3815126 21.5932773,21.3378151 21.6033613,21.2941176 C21.6941176,20.7462185 21.7008403,20.2756303 21.6168067,19.8588235 C22.5008403,19.3042017 22.994958,18.487395 22.994958,17.5428571 C22.994958,16.9546218 22.8806723,16.4941176 22.7294118,16.1411765 C23.3142857,15.5596639 23.6268908,14.8336134 23.6268908,14.0436975 C23.6235294,13.3243697 23.4218487,12.7798319 23.1663866,12.3798319" id="Me-gusta-like_3Masa"></path>
        </g>
    </g>
</svg>

<svg width="24" height="24" viewBox="0 0 24 24" xmlns="http://www.w3.org/2000/svg"><path d="M21.714 12.924c.29.266.434.646.434 1.126 0 .518-.269.965-.797 1.325a.74.74 0 00-.14 1.089c.2.235.305.608.305 1.082 0 .676-.595 1.066-1.092 1.274a.725.725 0 00-.41.434.73.73 0 00.047.598c.1.182.198.474.097 1.13-.3.796-.555 1.196-4.682 1.196-2.498 0-3.49-.292-4.367-.548l-.259-.074c-.49-.14-.88-.252-1.274-.252l-2.971-.04v-9.025c0-.02-.003-.037-.007-.057v-.01c.911-.471 2.84-1.718 3.05-3.9.14-1.452.12-3.233.09-4.622 0-.026-.004-.053-.007-.08-.007-.118-.017-.215-.027-.316l-.02-.229c-.034-.49.064-.864.292-1.109.313-.333.844-.403 1.234-.403 1.069 0 1.523.467 1.523 1.637l-.007.144v.04c0 2.189-.01 5.066-.01 5.066 0 .4.316.73.716.74l3.223.097h4.074c.43.024 1.429.202 1.429 1.341 0 .572-.148 1.009-.43 1.26a.728.728 0 00-.242.545.7.7 0 00.228.541M3.274 14.81c-.538 0-.914-.376-.914-.914s.376-.914.914-.914.91.373.91.914c0 .538-.372.914-.91.914m19.892-2.43c.256-.414.458-.998.458-1.805 0-1.836-1.416-2.736-2.861-2.817h-4.094l-2.484-.074c.003-.992.007-2.823.007-4.336l.006-.158.004-.118c0-1.902-1.12-3.042-2.999-3.042-.981 0-1.781.303-2.312.874-.353.383-.763 1.08-.683 2.219l.024.275c.01.098.02.189.023.31 0 .016.004.033.004.05.03 1.334.047 3.018-.084 4.366-.141 1.48-1.604 2.39-2.262 2.73a1.732 1.732 0 00-1.063-.37H1.748A1.75 1.75 0 000 12.235v9.113c0 .965.783 1.748 1.748 1.748h3.11c.423 0 .81-.158 1.112-.41.077.017.148.047.228.047l3.368.043c.195 0 .498.085.878.199l.252.07c.924.27 2.074.609 4.78.609 4.332 0 5.415-.397 6.09-2.229.017-.043.027-.087.037-.13.091-.549.098-1.02.014-1.436.884-.555 1.378-1.372 1.378-2.316 0-.588-.114-1.049-.266-1.402.585-.581.898-1.307.898-2.097-.003-.72-.205-1.264-.46-1.664" fill="#5CB615" fill-rule="nonzero"/></svg>
